assets/img/dog-icon.svg

<svg width="166" height="166" viewBox="0 0 166 166" fill="none" xmlns="http://www.w3.org/2000/svg">
<rect width="165.337" height="165.337" rx="19.4018" fill="#FADCD5"/>
<path d="M68.092 145.58C66.6073 145.58 65.3318 145.283 64.2656 144.689C63.2128 144.082 62.403 143.231 61.8361 142.138C61.2693 141.031 60.9858 139.729 60.9858 138.231C60.9858 137.11 61.1478 136.105 61.4717 135.214C61.7956 134.31 62.2613 133.541 62.8687 132.906C63.476 132.258 64.2183 131.766 65.0956 131.428C65.9864 131.077 66.9852 130.902 68.092 130.902C68.8343 130.902 69.5631 130.996 70.2785 131.185C70.9938 131.374 71.6214 131.644 72.1613 131.995C72.4447 132.171 72.6337 132.387 72.7282 132.643C72.8226 132.886 72.8429 133.129 72.7889 133.372C72.7349 133.601 72.6202 133.797 72.4447 133.959C72.2828 134.121 72.0736 134.215 71.8171 134.242C71.5742 134.256 71.3042 134.168 71.0073 133.979C70.5889 133.709 70.1368 133.514 69.6509 133.392C69.165 133.271 68.6723 133.21 68.1729 133.21C67.2147 133.21 66.4048 133.406 65.7435 133.797C65.0821 134.188 64.5828 134.755 64.2453 135.498C63.9079 136.24 63.7392 137.151 63.7392 138.231C63.7392 139.297 63.9079 140.208 64.2453 140.964C64.5828 141.72 65.0821 142.293 65.7435 142.685C66.4048 143.076 67.2147 143.272 68.1729 143.272C68.6858 143.272 69.192 143.211 69.6914 143.09C70.1907 142.955 70.6631 142.752 71.1085 142.482C71.4055 142.307 71.6687 142.233 71.8981 142.26C72.141 142.273 72.3435 142.354 72.5055 142.502C72.6674 142.651 72.7754 142.84 72.8294 143.069C72.8834 143.285 72.8699 143.515 72.7889 143.758C72.7079 143.987 72.546 144.19 72.303 144.365C71.7631 144.756 71.1153 145.06 70.3595 145.276C69.6171 145.479 68.8613 145.58 68.092 145.58ZM76.2243 145.539C75.8194 145.539 75.509 145.431 75.293 145.215C75.077 144.986 74.9691 144.662 74.9691 144.244V132.218C74.9691 131.799 75.077 131.482 75.293 131.266C75.509 131.05 75.8194 130.942 76.2243 130.942C76.6292 130.942 76.9396 131.05 77.1556 131.266C77.385 131.482 77.4997 131.799 77.4997 132.218V137.461H77.2163C77.5132 136.746 77.9721 136.206 78.593 135.842C79.2274 135.464 79.9427 135.275 80.739 135.275C81.5353 135.275 82.1899 135.423 82.7028 135.72C83.2157 136.017 83.6004 136.469 83.8568 137.077C84.1132 137.671 84.2415 138.426 84.2415 139.344V144.244C84.2415 144.662 84.1335 144.986 83.9175 145.215C83.7016 145.431 83.3912 145.539 82.9863 145.539C82.5813 145.539 82.2642 145.431 82.0347 145.215C81.8188 144.986 81.7108 144.662 81.7108 144.244V139.466C81.7108 138.696 81.5623 138.136 81.2654 137.785C80.982 137.434 80.5366 137.259 79.9292 137.259C79.1869 137.259 78.593 137.495 78.1476 137.968C77.7157 138.426 77.4997 139.041 77.4997 139.81V144.244C77.4997 145.107 77.0746 145.539 76.2243 145.539ZM91.3266 145.58C90.3008 145.58 89.41 145.371 88.6542 144.952C87.8983 144.534 87.3112 143.94 86.8928 143.171C86.4744 142.388 86.2652 141.47 86.2652 140.417C86.2652 139.621 86.3799 138.912 86.6094 138.291C86.8523 137.657 87.1965 137.117 87.6419 136.672C88.0873 136.213 88.6204 135.869 89.2413 135.639C89.8621 135.396 90.5572 135.275 91.3266 135.275C92.3523 135.275 93.2431 135.484 93.999 135.902C94.7548 136.321 95.3419 136.915 95.7603 137.684C96.1787 138.453 96.3879 139.364 96.3879 140.417C96.3879 141.214 96.2664 141.929 96.0235 142.563C95.7941 143.198 95.4566 143.744 95.0112 144.203C94.5658 144.648 94.0327 144.993 93.4118 145.236C92.791 145.465 92.0959 145.58 91.3266 145.58ZM91.3266 143.656C91.826 143.656 92.2646 143.535 92.6425 143.292C93.0204 143.049 93.3106 142.691 93.5131 142.219C93.729 141.733 93.837 141.133 93.837 140.417C93.837 139.337 93.6075 138.534 93.1487 138.008C92.6898 137.468 92.0824 137.198 91.3266 137.198C90.8272 137.198 90.3885 137.32 90.0106 137.563C89.6327 137.792 89.3358 138.15 89.1198 138.636C88.9174 139.108 88.8161 139.702 88.8161 140.417C88.8161 141.483 89.0456 142.293 89.5045 142.847C89.9634 143.387 90.5707 143.656 91.3266 143.656ZM92.2781 134.04C92.1431 134.229 91.9812 134.337 91.7922 134.364C91.6033 134.391 91.421 134.357 91.2456 134.263C91.0701 134.168 90.9419 134.033 90.8609 133.858C90.7934 133.682 90.8137 133.487 90.9217 133.271L92.4603 130.254C92.5818 129.998 92.7437 129.836 92.9462 129.768C93.1487 129.687 93.3579 129.674 93.5738 129.728C93.7898 129.782 93.972 129.883 94.1204 130.031C94.2824 130.18 94.3769 130.362 94.4039 130.578C94.4444 130.78 94.3904 130.99 94.2419 131.206L92.2781 134.04Z" fill="#363344"/>
<path d="M77.0447 36.0101H86.6052M115.287 69.5941C112.1 95.182 104.133 107.976 91.3854 107.976H72.2645C59.5172 107.976 51.5501 95.182 48.3633 69.5941" stroke="#E74F2C" stroke-width="5.90491" stroke-linecap="round" stroke-linejoin="round"/>
<path d="M81.8252 98.38V107.975M72.2647 64.796V64.8439M91.3856 64.796V64.8439M77.0449 88.7846C77.0449 91.983 78.6384 93.5823 81.8252 93.5823C86.6054 93.5823 86.6054 91.9846 86.6054 88.7846H77.0449ZM48.3635 31.2119L77.0449 35.8657L47.2258 67.9529C46.3888 68.8989 45.2193 69.4828 43.9627 69.582C42.706 69.6813 41.4599 69.2883 40.4857 68.4854C39.8234 67.9467 39.3255 67.2317 39.0491 66.4223C38.7726 65.6128 38.7288 64.7416 38.9226 63.9084L48.3635 31.2119ZM115.287 31.2119L86.6054 35.8657L116.425 67.9529C118.136 69.9103 121.152 70.1502 123.165 68.4854C123.827 67.9467 124.325 67.2317 124.601 66.4223C124.878 65.6128 124.922 64.7416 124.728 63.9084L115.287 31.2119Z" stroke="#E74F2C" stroke-width="5.90491" stroke-linecap="round" stroke-linejoin="round"/>
</svg>

<svg xmlns="http://www.w3.org/2000/svg" width="166" height="166" fill="none"><rect width="165.337" height="165.337" fill="#FADCD5" rx="19.402"/><path fill="#363344" d="M68.092 145.58q-2.227 0-3.826-.891a6.15 6.15 0 0 1-2.43-2.551q-.85-1.66-.85-3.907 0-1.681.486-3.017.486-1.356 1.397-2.308a5.9 5.9 0 0 1 2.227-1.478q1.336-.526 2.996-.526 1.113 0 2.186.283a6.5 6.5 0 0 1 1.883.81q.426.264.567.648.142.364.06.729a1.14 1.14 0 0 1-.343.587 1 1 0 0 1-.628.283q-.364.02-.81-.263a4.5 4.5 0 0 0-1.356-.587 6 6 0 0 0-1.478-.182q-1.437 0-2.43.587-.99.586-1.498 1.701-.506 1.113-.506 2.733 0 1.599.506 2.733.507 1.133 1.498 1.721.993.587 2.43.587.77 0 1.518-.182.75-.203 1.418-.608.445-.263.79-.222a.95.95 0 0 1 .606.242q.243.224.324.567.08.324-.04.689-.122.344-.486.607-.81.587-1.944.911a8.6 8.6 0 0 1-2.267.304m8.132-.041q-.607 0-.931-.324-.324-.344-.324-.971v-12.026q0-.628.324-.952t.931-.324.932.324q.344.324.344.952v5.243h-.284q.445-1.073 1.377-1.619.951-.567 2.146-.567t1.964.445 1.154 1.357q.385.89.385 2.267v4.9q0 .627-.325.971-.323.324-.93.324-.609 0-.952-.324-.324-.344-.324-.971v-4.778q0-1.155-.446-1.681-.424-.526-1.336-.526-1.113 0-1.781.709-.648.688-.648 1.842v4.434q0 1.295-1.276 1.295m15.103.041q-1.539 0-2.673-.628a4.4 4.4 0 0 1-1.761-1.781q-.628-1.175-.628-2.754 0-1.194.344-2.126a4.6 4.6 0 0 1 1.033-1.619 4.26 4.26 0 0 1 1.6-1.033q.93-.364 2.085-.364 1.538 0 2.672.627a4.4 4.4 0 0 1 1.761 1.782q.628 1.154.628 2.733 0 1.195-.365 2.146a4.5 4.5 0 0 1-1.012 1.64 4.6 4.6 0 0 1-1.6 1.033q-.93.344-2.084.344m0-1.924q.749 0 1.316-.364.566-.365.87-1.073.324-.728.324-1.802 0-1.62-.688-2.409-.69-.81-1.822-.81-.75 0-1.316.365-.567.344-.891 1.073-.304.708-.304 1.781 0 1.599.688 2.43.69.81 1.823.809m.951-9.616q-.203.283-.486.324a.87.87 0 0 1-.546-.101.86.86 0 0 1-.385-.405q-.101-.263.06-.587l1.54-3.017q.181-.384.485-.486a1 1 0 0 1 .628-.04q.324.081.546.303a.87.87 0 0 1 .284.547q.06.304-.162.628z"/><path stroke="#E74F2C" stroke-linecap="round" stroke-linejoin="round" stroke-width="5.905" d="M77.045 36.01h9.56m28.682 33.584q-4.78 38.382-23.902 38.382h-19.12q-19.122 0-23.902-38.382"/><path stroke="#E74F2C" stroke-linecap="round" stroke-linejoin="round" stroke-width="5.905" d="M81.825 98.38v9.595m-9.56-43.179v.048m19.12-.048v.048m-14.34 23.94q0 4.798 4.78 4.798c4.78 0 4.78-1.597 4.78-4.797zM48.364 31.213l28.68 4.654-29.818 32.087a4.864 4.864 0 0 1-6.74.532 4.573 4.573 0 0 1-1.563-4.577zm66.923 0-28.682 4.654 29.82 32.087c1.711 1.957 4.727 2.197 6.74.532a4.567 4.567 0 0 0 1.563-4.577z"/></svg>
